packages/calcite-ui-icons/icons/classroom-gis-24.svg

<?xml version="1.0" encoding="UTF-8"?><svg id="icons" xmlns="http://www.w3.org/2000/svg" viewBox="0 0 24 24"><defs><style>.cls-1{fill:none;}</style></defs><rect class="cls-1" width="24" height="24"/><path d="M22.50293,1H5.49707c-.8252,0-1.49707.67188-1.49707,1.49707v4.50293h1V2.49707c0-.27441.22266-.49707.49707-.49707h11.20135c-.00153.23376-.05499.68628-.38495,1.18555-.51562.77637-.39453,1.18945-.18164,1.64941.13965.30078.29688.64062.17969,1.52344-.07324.55176-.1123,1.33008.3916,1.71289.51172.38672,1.16797.10645,1.69531-.11914.08008-.03516.17969-.07715.27148-.11328.07031.96387.58105,1.35449.97754,1.54102-.10547.08301-.22852.16797-.36035.25781-.41211.28418-.92578.63672-1.32617,1.23926-.69434,1.04785-.39551,2.07617-.19727,2.75586.0293.10254.05957.20605.08105.29492-.58289.17499-.81555.59857-.85797,2.07227h-3.98676v1h9.50293c.8252,0,1.49707-.67188,1.49707-1.49707V2.49707c0-.8252-.67188-1.49707-1.49707-1.49707ZM23,15.50293c0,.27441-.22266.49707-.49707.49707h-4.50293c.02924-.98999-.00165-1.06573.20312-1.11719.1709-.04297.68945-.17285.68945-.7666,0-.23828-.07129-.4834-.15332-.76758-.17188-.58789-.36523-1.25488.06836-1.90918.29199-.43945.67969-.70605,1.05566-.96387.34961-.24023.67969-.46777.9082-.81152.14551-.21973.18359-.43457.11426-.63965-.10547-.31348-.39062-.41211-.59863-.48438-.32715-.11328-.60938-.21191-.60938-.93164,0-.41797-.18652-.62891-.34277-.73242-.39747-.25781-.87207-.05664-1.33691.1416-.20605.08887-.59082.25293-.66406.25977-.00098-.00098-.09863-.15625-.01465-.78613.15527-1.17383-.09766-1.7207-.26465-2.08301-.12402-.26758-.13672-.2959.10547-.66113.4549-.68622.55219-1.32593.55389-1.74707h4.78888c.27441,0,.49707.22266.49707.49707v13.00586ZM4,10.75684l.37787-.27063c.27484.31256.67316.51379,1.12213.51379.82843,0,1.5-.67157,1.5-1.5s-.67157-1.5-1.5-1.5-1.5.67157-1.5,1.5c0,.00873.00244.01678.00256.02551l-1.00256.71765v2.75684H0v1.62402l1.25488,2.37598h.74512v7h1v-7h6v7h1v-7h.77246l1.22754-2.37891v-1.62109H4v-2.24316ZM5,9h1v1h-1v-1ZM11,14v.37891l-.83691,1.62109H1.8584l-.8584-1.62402v-.37598h10ZM13,11.5c0,.82843.67157,1.5,1.5,1.5s1.5-.67157,1.5-1.5-.67157-1.5-1.5-1.5-1.5.67157-1.5,1.5ZM15,12h-1v-1h1v1ZM15,8.5c0-.82843-.67157-1.5-1.5-1.5s-1.5.67157-1.5,1.5.67157,1.5,1.5,1.5,1.5-.67157,1.5-1.5ZM13,8h1v1h-1v-1ZM12,5h-5v-1h5v1ZM7,6h4v1h-4v-1Z"/></svg>

<svg xmlns="http://www.w3.org/2000/svg" viewBox="0 0 24 24"><path fill="none" d="M0 0h24v24H0z"/><path d="M22.503 1H5.497A1.5 1.5 0 0 0 4 2.497V7h1V2.497C5 2.223 5.223 2 5.497 2h11.201a2.193 2.193 0 0 1-.385 1.186c-.515.776-.394 1.189-.181 1.649.14.3.297.64.18 1.523-.074.552-.113 1.33.391 1.713.512.387 1.168.107 1.695-.119.08-.035.18-.077.272-.113.07.964.581 1.354.977 1.54a6.678 6.678 0 0 1-.36.259c-.412.284-.926.636-1.326 1.239-.694 1.048-.396 2.076-.197 2.756.029.102.06.206.08.295-.582.175-.815.598-.857 2.072H13v1h9.503A1.5 1.5 0 0 0 24 15.503V2.497A1.5 1.5 0 0 0 22.503 1zM23 15.503a.497.497 0 0 1-.497.497H18c.03-.99-.002-1.066.203-1.117.171-.043.69-.173.69-.767 0-.238-.072-.483-.154-.767-.172-.588-.365-1.255.069-1.91.292-.439.68-.706 1.055-.963.35-.24.68-.468.908-.812.146-.22.184-.435.115-.64-.106-.313-.39-.412-.599-.484-.327-.113-.61-.212-.61-.932 0-.418-.186-.629-.342-.732-.398-.258-.872-.057-1.337.142-.206.088-.59.252-.664.26-.001-.002-.099-.157-.015-.787.156-1.174-.097-1.72-.264-2.083-.124-.267-.137-.296.105-.66A3.177 3.177 0 0 0 17.714 2h4.789c.274 0 .497.223.497.497v13.006zM4 10.757l.378-.27A1.49 1.49 0 0 0 5.5 11 1.5 1.5 0 1 0 4 9.5c0 .009.002.017.003.026L3 10.243V13H0v1.624L1.255 17H2v7h1v-7h6v7h1v-7h.772L12 14.621V13H4v-2.243zM5 9h1v1H5V9zm6 5v.379L10.163 16H1.858L1 14.376V14h10zm2-2.5a1.5 1.5 0 1 0 3 0 1.5 1.5 0 0 0-3 0zm2 .5h-1v-1h1v1zm0-3.5a1.5 1.5 0 1 0-3 0 1.5 1.5 0 0 0 3 0zM13 8h1v1h-1V8zm-1-3H7V4h5v1zM7 6h4v1H7V6z"/></svg>
